X:51
T:Banish Misfortune                                                                                 
M:6/8                                                                                               
L:1/8                                                                                               
K:DMix                                                                                              
fed cAG|Add cAG|F2 D DED|FEF GFG|\                                                                  
A3 cAG|AGA cde|fed cAG|Ad^c d2 e :|                                                                 
|: f2 d d^cd|f2 g agf|e2 c cBc|e2 f gfe|\                                                           
f2 g agf|e2 f gfe|fed cAG|Ad^c d2 e :|                                                              
|:=f2 g e2 f|ded c2 d|A3 GAG| F2 A GFD|\                                                            
c2 c cAG|AGA cde|fed cAG|Add d3 :|
